src/images/svg/symbols/index10s1-new.svg

<svg width="32" height="32" viewBox="0 0 32 32" fill="none" xmlns="http://www.w3.org/2000/svg">
<path d="M22.5 13.0001H24V22H22.5V32H21.5V22H20V13.0001H21.5V11.0001H22.5V13.0001Z" fill="#85ACB0"/>
<path d="M30 11V18H28.5V22H27.5V18H26V11H30Z" fill="#85ACB0"/>
<path d="M16.5 20V16H15.5V20H14V28H15.5V30H16.5V28H18V20H16.5Z" fill="#85ACB0"/>
<path d="M10.5 15H12V21H10.5V28H9.5V21H8V15H9.5V13H10.5V15Z" fill="#85ACB0"/>
<path d="M4.5 19H6V23H4.5V25H3.5V23H2V19H3.5V17H4.5V19Z" fill="#85ACB0"/>
<path d="M22 5C22 2.23858 24.2386 0 27 0C29.7614 0 32 2.23858 32 5C32 7.76142 29.7614 10 27 10C24.2386 10 22 7.76142 22 5Z" fill="#FF444F"/>
<path d="M24.2524 7.0005V6.2745H25.3804V3.4665H25.3264L24.4744 4.5825L23.8984 4.1325L24.9004 2.8125H26.2804V6.2745H27.1684V7.0005H24.2524Z" fill="white"/>
<path d="M28.7681 7.0725C28.4641 7.0725 28.2081 7.0245 28.0001 6.9285C27.7921 6.8285 27.6061 6.6885 27.4421 6.5085L27.9641 5.9805C28.0761 6.1045 28.2001 6.2025 28.3361 6.2745C28.4721 6.3465 28.6261 6.3825 28.7981 6.3825C28.9741 6.3825 29.0961 6.3565 29.1641 6.3045C29.2321 6.2485 29.2661 6.1745 29.2661 6.0825C29.2661 5.9345 29.1601 5.8465 28.9481 5.8185L28.6061 5.7765C27.8981 5.6885 27.5441 5.3645 27.5441 4.8045C27.5441 4.6525 27.5721 4.5145 27.6281 4.3905C27.6881 4.2625 27.7701 4.1545 27.8741 4.0665C27.9821 3.9745 28.1101 3.9045 28.2581 3.8565C28.4101 3.8045 28.5801 3.7785 28.7681 3.7785C28.9321 3.7785 29.0761 3.7905 29.2001 3.8145C29.3281 3.8345 29.4401 3.8665 29.5361 3.9105C29.6361 3.9505 29.7261 4.0025 29.8061 4.0665C29.8901 4.1265 29.9721 4.1945 30.0521 4.2705L29.5421 4.7925C29.4421 4.6925 29.3281 4.6145 29.2001 4.5585C29.0761 4.4985 28.9481 4.4685 28.8161 4.4685C28.6641 4.4685 28.5561 4.4925 28.4921 4.5405C28.4281 4.5885 28.3961 4.6525 28.3961 4.7325C28.3961 4.8165 28.4181 4.8825 28.4621 4.9305C28.5101 4.9745 28.5981 5.0065 28.7261 5.0265L29.0801 5.0745C29.7721 5.1665 30.1181 5.4825 30.1181 6.0225C30.1181 6.1745 30.0861 6.3145 30.0221 6.4425C29.9581 6.5705 29.8661 6.6825 29.7461 6.7785C29.6301 6.8705 29.4881 6.9425 29.3201 6.9945C29.1561 7.0465 28.9721 7.0725 28.7681 7.0725Z" fill="white"/>
<path d="M0 2C0 0.89543 0.895431 0 2 0H12C13.1046 0 14 0.895431 14 2V8C14 9.10457 13.1046 10 12 10H2C0.89543 10 0 9.10457 0 8V2Z" fill="#0E0E0E"/>
<path d="M2.95442 8.00031V7.03231H4.45842V3.28831H4.38642L3.25042 4.77631L2.48242 4.17631L3.81842 2.41631H5.65842V7.03231H6.84242V8.00031H2.95442Z" fill="white"/>
<path d="M9.3993 8.09631C8.66863 8.09631 8.1273 7.84298 7.7753 7.33631C7.4233 6.82965 7.2473 6.12031 7.2473 5.20831C7.2473 4.29631 7.4233 3.58698 7.7753 3.08031C8.1273 2.57365 8.66863 2.32031 9.3993 2.32031C10.13 2.32031 10.6713 2.57365 11.0233 3.08031C11.3753 3.58698 11.5513 4.29631 11.5513 5.20831C11.5513 6.12031 11.3753 6.82965 11.0233 7.33631C10.6713 7.84298 10.13 8.09631 9.3993 8.09631ZM9.3993 7.08031C9.7193 7.08031 9.94063 6.96298 10.0633 6.72831C10.186 6.49365 10.2473 6.16298 10.2473 5.73631V4.68031C10.2473 4.25365 10.186 3.92298 10.0633 3.68831C9.94063 3.45365 9.7193 3.33631 9.3993 3.33631C9.0793 3.33631 8.85796 3.45365 8.7353 3.68831C8.61263 3.92298 8.5513 4.25365 8.5513 4.68031V5.73631C8.5513 6.16298 8.61263 6.49365 8.7353 6.72831C8.85796 6.96298 9.0793 7.08031 9.3993 7.08031Z" fill="white"/>
</svg>

<svg width="32" height="32" fill="none" xmlns="http://www.w3.org/2000/svg"><path d="M22.5 13H24v9h-1.5v10h-1V22H20v-9h1.5v-2h1v2ZM30 11v7h-1.5v4h-1v-4H26v-7h4ZM16.5 20v-4h-1v4H14v8h1.5v2h1v-2H18v-8h-1.5ZM10.5 15H12v6h-1.5v7h-1v-7H8v-6h1.5v-2h1v2ZM4.5 19H6v4H4.5v2h-1v-2H2v-4h1.5v-2h1v2Z" fill="#85ACB0"/><path d="M22 5a5 5 0 1 1 10 0 5 5 0 0 1-10 0Z" fill="#FF444F"/><path d="M24.252 7v-.726h1.128V3.466h-.054l-.852 1.116-.576-.45 1.002-1.32h1.38v3.462h.888V7h-2.916ZM28.768 7.072c-.304 0-.56-.048-.768-.144-.208-.1-.394-.24-.558-.42l.522-.527c.112.123.236.221.372.293.136.072.29.109.462.109.176 0 .298-.027.366-.079a.273.273 0 0 0 .102-.222c0-.147-.106-.236-.318-.263l-.342-.042c-.708-.088-1.062-.413-1.062-.973 0-.152.028-.29.084-.413a.942.942 0 0 1 .246-.325c.108-.091.236-.161.384-.21.152-.051.322-.077.51-.077.164 0 .308.012.432.035.128.02.24.052.336.096.1.04.19.093.27.156.084.06.166.128.246.205l-.51.522c-.1-.1-.214-.179-.342-.234a.872.872 0 0 0-.384-.09c-.152 0-.26.023-.324.071a.228.228 0 0 0-.096.192c0 .084.022.15.066.199.048.043.136.075.264.096l.354.047c.692.093 1.038.409 1.038.949a.926.926 0 0 1-.096.42c-.064.128-.156.24-.276.336a1.293 1.293 0 0 1-.426.216 1.822 1.822 0 0 1-.552.077Z" fill="#fff"/><path d="M0 2a2 2 0 0 1 2-2h10a2 2 0 0 1 2 2v6a2 2 0 0 1-2 2H2a2 2 0 0 1-2-2V2Z" fill="#0E0E0E"/><path d="M2.954 8v-.968h1.504V3.288h-.072L3.25 4.776l-.768-.6 1.336-1.76h1.84v4.616h1.184V8H2.954ZM9.4 8.096c-.731 0-1.273-.253-1.625-.76-.352-.506-.528-1.216-.528-2.128 0-.912.176-1.621.528-2.128.352-.506.894-.76 1.624-.76.731 0 1.272.254 1.624.76.352.507.528 1.216.528 2.128 0 .912-.176 1.622-.528 2.128-.352.507-.893.76-1.624.76Zm0-1.016c.32 0 .54-.117.663-.352.123-.234.184-.565.184-.992V4.68c0-.426-.061-.757-.184-.992-.122-.234-.344-.352-.664-.352-.32 0-.541.118-.664.352-.122.235-.184.566-.184.992v1.056c0 .427.062.758.184.992.123.235.344.352.664.352Z" fill="#fff"/></svg>
